X: 1
T:le Pas d'\'Ete
R:Schottische
M:C
O:France
K:G
d2d2B2B2|G2G2E4|c2BAB2AG\
|1FGAcB2G2:|2FGAFG4:|\
|:DGBG DFAF|DGBG DFAF|DGAB cBAG\
|1FGAcB2G2:|2FGAFG4:|
